icons/1_Primary/Hiveon.svg

<svg xmlns="http://www.w3.org/2000/svg" width="1024" height="1024" fill="none">
   <g clip-path="url(#a)">
      <path fill="#F8C18C" d="M512 1024c282.77 0 512-229.23 512-512S794.77 0 512 0 0 229.23 0 512s229.23 512 512 512Z"/>
      <path fill="#fff" d="m364.76 318-52.86 31c-22.11 12.52-39.9 44.08-39.9 69.66v187.22c0 25.58 17.8 56.6 39.91 69.66l52.86 31-.01-388.54Zm347.34 30.45-52.86-31v387.5l52.86-31c22.11-12.55 39.9-44.12 39.9-69.7V418.12c0-25.58-17.79-56.6-39.9-69.67Zm-247 415.8 7 4.35c22.11 12.52 57.71 12.52 79.28 0l7-4.35V562.89s-13.48-23.4-46.92-23.4-46.92 23.4-46.92 23.4v201.37l.56-.01Zm86.84-508.87c-22.11-12.52-57.71-12.52-79.28 0l-7 4.35v198.12s13.48 23.4 46.92 23.4 46.92-23.4 46.92-23.4V259.2l-7.56-3.82Z"/>
   </g>
   <defs>
      <clipPath id="a">
         <path fill="#fff" d="M0 0h1024v1024H0z"/>
      </clipPath>
   </defs>
</svg>

<svg width="1024" height="1024" viewBox="0 0 1024 1024" fill="none" xmlns="http://www.w3.org/2000/svg">
<g clip-path="url(#clip0_2_2409)">
<path d="M512 1024C794.77 1024 1024 794.77 1024 512C1024 229.23 794.77 0 512 0C229.23 0 0 229.23 0 512C0 794.77 229.23 1024 512 1024Z" fill="#F8C18C"/>
<path d="M364.76 318L311.9 349C289.79 361.52 272 393.08 272 418.66V605.88C272 631.46 289.8 662.48 311.91 675.54L364.77 706.54L364.76 318ZM712.1 348.45L659.24 317.45V704.95L712.1 673.95C734.21 661.4 752 629.83 752 604.25V418.12C752 392.54 734.21 361.52 712.1 348.45ZM465.1 764.25L472.1 768.6C494.21 781.12 529.81 781.12 551.38 768.6L558.38 764.25V562.89C558.38 562.89 544.9 539.49 511.46 539.49C478.02 539.49 464.54 562.89 464.54 562.89V764.26L465.1 764.25ZM551.94 255.38C529.83 242.86 494.23 242.86 472.66 255.38L465.66 259.73V457.85C465.66 457.85 479.14 481.25 512.58 481.25C546.02 481.25 559.5 457.85 559.5 457.85V259.2L551.94 255.38Z" fill="white"/>
</g>
<defs>
<clipPath id="clip0_2_2409">
<rect width="1024" height="1024" fill="white"/>
</clipPath>
</defs>
</svg>
